resources/svg/gba-o.svg

<svg xmlns="http://www.w3.org/2000/svg" viewBox="0 0 15 15" fill="none"><path d="M1.99997 6.5H4.99997M12 6.5H13M11 8.5H12M3.49997 5V8M5.10553 2.5H9.89442C10.2893 2.5 10.6753 2.61688 11.0038 2.8359L12 3.5H12.1377C13.187 3.5 14.0579 4.3109 14.1327 5.35751L14.4523 9.83326C14.4812 10.2368 14.264 10.618 13.9021 10.7989L11.812 11.844C11.6046 11.9477 11.3865 12.0284 11.1615 12.0846C8.75748 12.6856 6.24247 12.6856 3.83844 12.0846C3.61347 12.0284 3.39533 11.9477 3.18792 11.844L1.09784 10.7989C0.735964 10.618 0.518772 10.2368 0.547598 9.83326L0.867295 5.3575C0.942053 4.31089 1.81293 3.5 2.86221 3.5H2.99997L3.99612 2.8359C4.32466 2.61688 4.71068 2.5 5.10553 2.5Z" stroke="black"/></svg>

<svg xmlns="http://www.w3.org/2000/svg" viewBox="0 0 15 15" fill="none"><path d="M2 6.5h3m7 0h1m-2 2h1M3.5 5v3m1.606-5.5h4.788a2 2 0 011.11.336L12 3.5h.138a2 2 0 011.995 1.858l.32 4.475a1 1 0 01-.55.966l-2.091 1.045a3.175 3.175 0 01-.65.24 15.097 15.097 0 01-7.324 0 3.176 3.176 0 01-.65-.24l-2.09-1.045a1 1 0 01-.55-.966l.32-4.476A2 2 0 012.861 3.5H3l.996-.664a2 2 0 011.11-.336z" stroke="currentColor"/></svg>
